X: 120
T:Betty Gluaistean
R:Jig
C:Niall Vallely
Z:added by Alf 
M:6/8
L:1/8
Q:3/8=120
K:A
:e2c AEC|DFB GBd|cAG AEC|DBA GFE|
e2c AEC|DFB GBd|cea fde|cEG A3:|
K:E
B2B dfa|geb gec|B2B fga|ged edc|
B2B dfa|geb geg|aa/a/a gfe|[1 fbb/b/b b2z:|[2 ff/f/f fed|]
